images/food_icon_03.svg

<svg fill="none" height="40" viewBox="0 0 40 40" width="40" xmlns="http://www.w3.org/2000/svg"><g stroke="#8f00ff" stroke-linecap="round" stroke-linejoin="round" stroke-width="2"><path d="m30.0544 31.1091c-1.699.7952-3.5525 1.206-5.4284 1.2034h-14.0937c-1.27191-.0012-2.529-.273-3.68785-.7972-1.15884-.5242-2.19293-1.289-3.03363-2.2434s-1.46878-2.0768-1.84255-3.2925c-.37377-1.2158-.48468-2.4971-.32538-3.759.15931-1.2619.58519-2.4754 1.24938-3.5601.66419-1.0848 1.55149-2.0158 2.60302-2.7313 1.05153-.7156 2.24322-1.1993 3.49599-1.4191 1.25282-.2198 2.53792-.1706 3.77022.1443"/><path d="m11.8125 19.4985c-.0036-2.2885.6087-4.5359 1.7726-6.5063"/><path d="m33.166 23.7715v5.125h5.125"/><path d="m16.9375 14.375v-5.125h-5.125"/><path d="m21.3089 7.12408c2.7243-.73 5.6135-.54063 8.2192.53871 2.6058 1.07935 4.7826 2.98841 6.1929 5.43101 1.4102 2.4425 1.975 5.2822 1.6069 8.0786-.3682 2.7963-1.6487 5.393-3.6431 7.3874"/><path d="m11.8125 19.5c0-1.6826.3314-3.3486.9753-4.9031s1.5876-2.967 2.7774-4.1567"/></g></svg>

<svg width="40" height="40" viewBox="0 0 40 40" fill="none" xmlns="http://www.w3.org/2000/svg">
<path d="M30.0544 31.1091C28.3554 31.9043 26.5019 32.3151 24.626 32.3125H10.5323C9.26039 32.3113 8.0033 32.0395 6.84445 31.5153C5.68561 30.9911 4.65152 30.2263 3.81082 29.2719C2.97012 28.3175 2.34204 27.1951 1.96827 25.9794C1.5945 24.7636 1.48359 23.4823 1.64289 22.2204C1.8022 20.9585 2.22808 19.745 2.89227 18.6603C3.55646 17.5755 4.44376 16.6445 5.49529 15.929C6.54682 15.2134 7.73851 14.7297 8.99128 14.5099C10.2441 14.2901 11.5292 14.3393 12.7615 14.6542" stroke="#8F00FF" stroke-width="2" stroke-linecap="round" stroke-linejoin="round"/>
<path d="M11.8125 19.4985C11.8089 17.21 12.4212 14.9626 13.5851 12.9922" stroke="#8F00FF" stroke-width="2" stroke-linecap="round" stroke-linejoin="round"/>
<path d="M33.166 23.7715V28.8965H38.291" stroke="#8F00FF" stroke-width="2" stroke-linecap="round" stroke-linejoin="round"/>
<path d="M16.9375 14.375L16.9375 9.25L11.8125 9.25" stroke="#8F00FF" stroke-width="2" stroke-linecap="round" stroke-linejoin="round"/>
<path d="M21.3089 7.12408C24.0332 6.39408 26.9224 6.58345 29.5281 7.66279C32.1339 8.74214 34.3107 10.6512 35.721 13.0938C37.1312 15.5363 37.696 18.376 37.3279 21.1724C36.9597 23.9687 35.6792 26.5654 33.6848 28.5598" stroke="#8F00FF" stroke-width="2" stroke-linecap="round" stroke-linejoin="round"/>
<path d="M11.8125 19.5C11.8125 17.8174 12.1439 16.1514 12.7878 14.5969C13.4317 13.0424 14.3754 11.6299 15.5652 10.4402" stroke="#8F00FF" stroke-width="2" stroke-linecap="round" stroke-linejoin="round"/>
</svg>
